2 Export/Icons/Rounded/1 Player/Mic.svg

<svg xmlns="http://www.w3.org/2000/svg" xmlns:xlink="http://www.w3.org/1999/xlink" width="24" height="24" viewBox="0 0 24 24">
  <defs>
    <path id="mic-a" d="M11.9208849,15 C13.5808849,15 14.9208849,13.66 14.9208849,12 L14.9208849,6 C14.9208849,4.34 13.5808849,3 11.9208849,3 C10.2608849,3 8.92088494,4.34 8.92088494,6 L8.92088494,12 C8.92088494,13.66 10.2608849,15 11.9208849,15 Z M17.8308849,12 C17.3408849,12 16.9308849,12.36 16.8508849,12.85 C16.4408849,15.2 14.3908849,17 11.9208849,17 C9.45088494,17 7.40088494,15.2 6.99088494,12.85 C6.91088494,12.36 6.50088494,12 6.01088494,12 C5.40088494,12 4.92088494,12.54 5.01088494,13.14 C5.50088494,16.14 7.90088494,18.49 10.9208849,18.92 L10.9208849,21 C10.9208849,21.55 11.3708849,22 11.9208849,22 C12.4708849,22 12.9208849,21.55 12.9208849,21 L12.9208849,18.92 C15.9408849,18.49 18.3408849,16.14 18.8308849,13.14 C18.9308849,12.54 18.4408849,12 17.8308849,12 Z"/>
  </defs>
  <g fill="none" fill-rule="evenodd">
    <polygon points="0 0 24 0 24 24 0 24"/>
    <mask id="mic-b" fill="#fff">
      <use xlink:href="#mic-a"/>
    </mask>
    <use fill="#000" xlink:href="#mic-a"/>
    <g fill="#000" mask="url(#mic-b)">
      <rect width="24" height="24"/>
    </g>
  </g>
</svg>

<svg xmlns="http://www.w3.org/2000/svg" xmlns:xlink="http://www.w3.org/1999/xlink" width="24" height="24" viewBox="0 0 24 24">
  <defs>
    <path id="mic-a" d="M11.92 15c1.66 0 3-1.34 3-3V6c0-1.66-1.34-3-3-3s-3 1.34-3 3v6c0 1.66 1.34 3 3 3zm5.91-3c-.49 0-.9.36-.98.85-.41 2.35-2.46 4.15-4.93 4.15-2.47 0-4.52-1.8-4.93-4.15a.998.998 0 0 0-.98-.85c-.61 0-1.09.54-1 1.14.49 3 2.89 5.35 5.91 5.78V21c0 .55.45 1 1 1s1-.45 1-1v-2.08a6.993 6.993 0 0 0 5.91-5.78c.1-.6-.39-1.14-1-1.14z"/>
  </defs>
  <g fill="none" fill-rule="evenodd">
    <polygon points="0 0 24 0 24 24 0 24"/>
    <mask id="mic-b" fill="#fff">
      <use xlink:href="#mic-a"/>
    </mask>
    <use fill="#000" xlink:href="#mic-a"/>
    <g fill="#000" mask="url(#mic-b)">
      <rect width="24" height="24"/>
    </g>
  </g>
</svg>
